src/img/formIcon.svg

<svg width="128" height="82" viewBox="0 0 128 82" fill="none" xmlns="http://www.w3.org/2000/svg">
<path fill-rule="evenodd" clip-rule="evenodd" d="M63.8 81.887C98.94 81.887 127.6 79.91 127.6 77.487C127.6 75.063 98.94 73.087 63.8 73.087C28.66 73.087 0 75.063 0 77.487C0 79.91 28.66 81.887 63.8 81.887Z" fill="#E0E3E6"/>
<path fill-rule="evenodd" clip-rule="evenodd" d="M25.153 70.863H101.12V24.287H25.153V70.863Z" fill="#F0F1F1"/>
<path fill-rule="evenodd" clip-rule="evenodd" d="M93.551 69.927H28.246C27.566 69.927 26.809 69.847 26.09 69.861V25.2219H98.026C98.706 25.2219 99.464 25.3019 100.183 25.2879V69.927H93.55H93.551ZM101.12 23.3509H34.504C31.443 23.3509 28.348 23.2199 25.289 23.3509C25.244 23.3529 25.199 23.3509 25.153 23.3509C24.647 23.3509 24.217 23.7799 24.217 24.2869V70.8629C24.217 71.3679 24.647 71.7979 25.153 71.7979H91.769C94.83 71.7979 97.924 71.9289 100.984 71.7979C101.029 71.7959 101.074 71.7979 101.12 71.7979C101.394 71.7979 101.603 71.6979 101.752 71.5479L101.784 71.5179L101.801 71.5C101.954 71.35 102.055 71.1399 102.055 70.8629V24.2869C102.055 23.7809 101.627 23.3509 101.12 23.3509V23.3509Z" fill="#292C6A"/>
<mask id="mask0_0_91" style="mask-type:alpha" maskUnits="userSpaceOnUse" x="18" y="0" width="90" height="78">
<path d="M18.486 77.831H107.853V0.296997H18.486V77.831Z" fill="white"/>
</mask>
<g mask="url(#mask0_0_91)">
<path fill-rule="evenodd" clip-rule="evenodd" d="M19.331 75.9291H106.827V70.8621H19.331V75.9291Z" fill="#F0F1F1"/>
<path fill-rule="evenodd" clip-rule="evenodd" d="M98.221 75.897H22.999C22.159 75.897 21.233 75.802 20.357 75.831V71.797H103.339C104.179 71.797 105.105 71.893 105.982 71.863V75.896H98.221V75.897ZM106.917 69.927H30.206C26.672 69.927 23.106 69.786 19.573 69.927C19.523 69.929 19.472 69.927 19.421 69.927C18.916 69.927 18.486 70.355 18.486 70.862V76.833C18.486 77.338 18.915 77.768 19.421 77.768H96.132C99.667 77.768 103.233 77.909 106.766 77.768C106.816 77.766 106.866 77.768 106.917 77.768C107.423 77.768 107.853 77.34 107.853 76.833V70.862C107.853 70.357 107.424 69.927 106.917 69.927Z" fill="#292C6A"/>
<path fill-rule="evenodd" clip-rule="evenodd" d="M76.661 70.862H94.104V40.004H76.661V70.862Z" fill="#39C0C4"/>
<path fill-rule="evenodd" clip-rule="evenodd" d="M78.848 69.927H77.597V40.939H93.169V69.927H78.849H78.848ZM94.104 39.068H76.661C76.156 39.068 75.726 39.497 75.726 40.004V70.863C75.726 71.368 76.154 71.798 76.661 71.798H94.104C94.379 71.798 94.587 71.698 94.737 71.548L94.768 71.518L94.786 71.499C94.938 71.349 95.04 71.139 95.04 70.863V40.003C95.04 39.498 94.61 39.068 94.104 39.068V39.068Z" fill="#292C6A"/>
<path fill-rule="evenodd" clip-rule="evenodd" d="M33.361 54.505H67.994V40.004H33.361V54.505Z" fill="#D4DAE0"/>
<path fill-rule="evenodd" clip-rule="evenodd" d="M56.285 53.569H34.296V40.939H67.058V53.569H56.285ZM68.929 40.004C68.929 39.498 68.5 39.068 67.994 39.068H33.361C32.855 39.068 32.425 39.497 32.425 40.004V54.505C32.425 55.011 32.854 55.441 33.36 55.441H67.993C68.268 55.441 68.477 55.341 68.626 55.191L68.658 55.161L68.675 55.142C68.828 54.992 68.929 54.782 68.929 54.505V40.004Z" fill="#292C6A"/>
<path fill-rule="evenodd" clip-rule="evenodd" d="M31.568 24.5271L35.403 1.23206H45.413L44.106 24.5271C44.106 24.5271 43.731 30.7961 37.836 30.7961C31.943 30.7961 31.569 24.5271 31.569 24.5271H31.568ZM56.641 24.5271V1.23206H69.177V24.5271C69.177 24.5271 68.989 30.7961 62.908 30.7961C56.828 30.7961 56.641 24.5271 56.641 24.5271V24.5271ZM81.714 24.5271L81.339 1.23206H91.723L94.25 24.5271C94.25 24.5271 93.968 29.8601 88.73 30.7021C83.49 31.5441 81.84 26.7821 81.714 24.5271Z" fill="#F0F1F1"/>
<path fill-rule="evenodd" clip-rule="evenodd" d="M106.786 24.5271L101.922 1.23206H91.723L94.25 24.5271C94.25 24.5271 94.25 30.7961 100.518 30.7961C106.786 30.7961 106.786 24.5271 106.786 24.5271ZM45.414 1.23206H56.641V24.5281C56.641 24.5281 55.988 30.7021 50.373 30.7961C44.759 30.8891 44.105 24.5281 44.105 24.5281L45.414 1.23206V1.23206ZM69.176 1.23206L69.177 24.5281C69.177 24.5281 69.459 30.8891 75.446 30.7961C81.432 30.7021 81.714 24.5281 81.714 24.5281L81.339 1.23206H69.176V1.23206ZM35.403 1.23206L33.753 11.2561C33.057 15.4881 32.328 19.7161 31.663 23.9541C31.407 25.5811 31.101 27.0601 30.077 28.4241C28.932 29.9501 27.189 30.7341 25.3 30.7961C19.499 30.9831 19.483 24.3401 19.483 24.3401L25.673 1.23206H35.403V1.23206Z" fill="#39C0C4"/>
<path fill-rule="evenodd" clip-rule="evenodd" d="M105.326 26.911C104.616 28.573 103.181 29.607 101.386 29.816C99.382 30.05 97.251 29.496 96.132 27.709C95.539 26.761 95.262 25.574 95.192 24.694L95.177 24.519C95.19 23.464 95.041 22.369 94.883 21.289C94.463 17.056 93.916 12.827 93.458 8.603L92.76 2.168H101.162L105.282 21.892L105.849 24.605C105.835 25.335 105.675 26.093 105.326 26.911V26.911ZM93.261 24.93C92.983 26.295 92.426 27.59 91.362 28.531C89.676 30.021 86.719 30.419 84.867 29.019C83.52 28.001 82.76 26.181 82.649 24.527L82.638 23.787V23.785L82.533 17.283L82.527 16.914C82.447 12.001 82.441 7.08 82.295 2.168H90.889L92.458 16.63L92.809 19.867C92.982 21.461 93.138 23.058 93.309 24.652C93.312 24.843 93.327 24.604 93.261 24.93V24.93ZM80.699 25.122C80.654 25.338 80.608 25.552 80.55 25.765C80.399 26.322 80.193 26.855 79.906 27.357C79.19 28.611 78.051 29.443 76.633 29.739C73.545 30.384 71.08 28.683 70.323 25.729C70.167 25.124 70.122 24.921 70.113 24.503V24.395C70.177 23.285 70.113 22.159 70.113 21.061V9.467V2.167H80.418L80.604 13.719L80.734 21.785V21.786L80.777 24.465C80.771 24.582 80.763 24.698 80.752 24.815V24.817L80.745 24.853C80.731 24.943 80.717 25.033 80.699 25.121V25.122ZM68.235 24.653C68.232 24.713 68.224 24.773 68.218 24.833L68.208 24.955C68.208 24.945 68.208 24.926 68.197 24.999C68.099 25.595 67.95 26.195 67.719 26.754C67.062 28.341 65.785 29.454 64.079 29.766C61.839 30.174 59.546 29.422 58.409 27.386C58.059 26.763 57.837 26.082 57.693 25.384C57.601 24.94 57.593 24.985 57.577 24.526V16.827C57.577 11.943 57.66 7.051 57.585 2.167H68.241V18.379L68.242 22.607C68.242 23.154 68.232 23.69 68.249 24.225C68.246 24.324 68.246 24.423 68.242 24.522L68.235 24.654V24.653ZM51.3 29.777C48.264 30.33 46.066 28.351 45.276 25.571C45.182 25.238 45.105 24.899 45.048 24.558C45.192 23.296 45.183 21.998 45.253 20.75C45.348 19.048 45.443 17.347 45.54 15.645L46.297 2.169H55.706V24.526L55.693 24.583C55.186 26.977 53.925 29.299 51.3 29.776V29.777ZM43.167 24.562C43.161 24.645 43.16 24.679 43.16 24.693C43.158 24.695 43.154 24.712 43.142 24.782C43.045 25.357 42.906 25.926 42.698 26.472C42.093 28.065 40.905 29.312 39.216 29.713C37.018 30.235 34.679 29.497 33.492 27.53C33.092 26.865 32.825 26.143 32.651 25.39C32.599 25.168 32.559 24.945 32.524 24.72C32.521 24.69 32.511 24.615 32.507 24.558L35.039 9.174C35.424 6.839 35.809 4.504 36.192 2.168H44.426L43.74 14.363L43.567 17.453L43.535 18.015L43.471 19.149L43.289 22.406C43.259 22.916 43.217 23.408 43.205 23.897L43.171 24.497L43.167 24.562V24.562ZM30.451 25.332C30.048 26.994 29.186 28.494 27.616 29.29C26.39 29.91 24.831 30.064 23.518 29.633C21.818 29.077 20.962 27.43 20.6 25.786C20.476 25.228 20.522 24.983 20.422 24.448L20.466 24.286C20.77 23.235 21.033 22.17 21.316 21.113L24.387 9.65L26.392 2.167H34.306L33.068 9.687C32.876 10.852 32.685 12.017 32.49 13.183C32.138 15.298 31.782 17.413 31.434 19.53C31.362 19.962 31.297 20.398 31.234 20.834C31.204 21.011 31.174 21.189 31.146 21.366L30.691 24.126C30.647 24.236 30.626 24.364 30.633 24.511C30.577 24.785 30.517 25.059 30.451 25.331V25.332ZM107.686 24.264L103.426 3.867L102.822 0.983997C102.739 0.584997 102.312 0.296997 101.92 0.296997H25.674C25.265 0.296997 24.878 0.586997 24.771 0.983997L19.476 20.747C19.193 21.805 18.869 22.86 18.626 23.927C18.437 24.747 18.646 25.668 18.839 26.471C19.307 28.403 20.417 30.271 22.272 31.139C25.01 32.422 28.619 31.612 30.563 29.309C30.957 28.842 31.27 28.343 31.525 27.821C32.387 29.541 33.836 30.936 35.752 31.463C38.046 32.095 40.689 31.663 42.491 30.068C43.193 29.447 43.741 28.662 44.151 27.809C45.055 29.597 46.533 31.064 48.565 31.539C51.873 32.312 55.015 30.751 56.545 27.845C57.357 29.485 58.725 30.821 60.523 31.39C62.797 32.108 65.561 31.766 67.435 30.244C68.181 29.638 68.762 28.858 69.193 28C70.101 29.77 71.631 31.16 73.693 31.57C77.009 32.227 80.185 30.851 81.707 27.924C82.963 30.376 85.381 32.034 88.458 31.676C90.805 31.403 92.965 30.001 94.174 28.008C94.406 28.482 94.684 28.934 95.02 29.35C96.495 31.175 98.863 31.874 101.148 31.707C104.97 31.428 107.705 28.337 107.723 24.527C107.723 24.43 107.708 24.344 107.687 24.263" fill="#292C6A"/>
</g>
</svg>

<svg xmlns="http://www.w3.org/2000/svg" width="128" height="82" fill="none"><path fill="#E0E3E6" fill-rule="evenodd" d="M63.8 81.887c35.14 0 63.8-1.977 63.8-4.4 0-2.424-28.66-4.4-63.8-4.4S0 75.063 0 77.487c0 2.423 28.66 4.4 63.8 4.4Z" clip-rule="evenodd"/><path fill="#F0F1F1" fill-rule="evenodd" d="M25.153 70.863h75.967V24.287H25.153v46.576Z" clip-rule="evenodd"/><path fill="#292C6A" fill-rule="evenodd" d="M93.551 69.927H28.246c-.68 0-1.437-.08-2.156-.066v-44.64h71.936c.68 0 1.438.08 2.157.067v44.639H93.55h.001Zm7.569-46.576H34.504c-3.061 0-6.156-.131-9.215 0-.045.002-.09 0-.136 0a.95.95 0 0 0-.936.936v46.576c0 .505.43.935.936.935h66.616c3.061 0 6.155.13 9.215 0 .045-.002.09 0 .136 0 .274 0 .483-.1.632-.25l.032-.03.017-.018a.861.861 0 0 0 .254-.637V24.287a.949.949 0 0 0-.935-.936Z" clip-rule="evenodd"/><mask id="a" width="90" height="78" x="18" y="0" maskUnits="userSpaceOnUse" style="mask-type:alpha"><path fill="#fff" d="M18.486 77.831h89.367V.297H18.486v77.534Z"/></mask><g fill-rule="evenodd" clip-rule="evenodd" mask="url(#a)"><path fill="#F0F1F1" d="M19.331 75.93h87.496v-5.068H19.331v5.067Z"/><path fill="#292C6A" d="M98.221 75.897H22.999c-.84 0-1.766-.095-2.642-.066v-4.034h82.982c.84 0 1.766.096 2.643.066v4.033h-7.761v.001Zm8.696-5.97H30.206c-3.534 0-7.1-.141-10.633 0-.05.002-.101 0-.152 0a.949.949 0 0 0-.935.935v5.971a.95.95 0 0 0 .935.935h76.711c3.535 0 7.101.141 10.634 0 .05-.002.1 0 .151 0a.949.949 0 0 0 .936-.935v-5.971a.95.95 0 0 0-.936-.935Z"/><path fill="#39C0C4" d="M76.661 70.862h17.443V40.004H76.661v30.858Z"/><path fill="#292C6A" d="M78.848 69.927h-1.251V40.939h15.572v28.988H78.848Zm15.256-30.859H76.661a.95.95 0 0 0-.935.936v30.859c0 .505.428.935.935.935h17.443c.275 0 .483-.1.633-.25l.031-.03.018-.019a.864.864 0 0 0 .254-.636v-30.86a.95.95 0 0 0-.936-.935Z"/><path fill="#D4DAE0" d="M33.361 54.505h34.633V40.004H33.361v14.501Z"/><path fill="#292C6A" d="M56.285 53.569H34.296v-12.63h32.762v12.63H56.285Zm12.644-13.565a.95.95 0 0 0-.935-.936H33.361a.95.95 0 0 0-.936.936v14.501a.95.95 0 0 0 .935.936h34.633c.275 0 .484-.1.633-.25l.032-.03.017-.019a.86.86 0 0 0 .254-.637V40.004Z"/><path fill="#F0F1F1" d="m31.568 24.527 3.835-23.295h10.01l-1.307 23.295s-.375 6.27-6.27 6.27c-5.893 0-6.267-6.27-6.267-6.27h-.001Zm25.073 0V1.232h12.536v23.295s-.188 6.27-6.269 6.27c-6.08 0-6.267-6.27-6.267-6.27Zm25.073 0-.375-23.295h10.384l2.527 23.295s-.282 5.333-5.52 6.175c-5.24.842-6.89-3.92-7.016-6.175Z"/><path fill="#39C0C4" d="m106.786 24.527-4.864-23.295H91.723l2.527 23.295s0 6.27 6.268 6.27 6.268-6.27 6.268-6.27ZM45.414 1.232h11.227v23.296s-.653 6.174-6.268 6.268c-5.614.093-6.268-6.268-6.268-6.268l1.309-23.296Zm23.762 0 .001 23.296s.282 6.361 6.269 6.268c5.986-.094 6.268-6.268 6.268-6.268l-.375-23.296H69.176Zm-33.773 0-1.65 10.024c-.696 4.232-1.425 8.46-2.09 12.698-.256 1.627-.562 3.106-1.586 4.47-1.145 1.526-2.888 2.31-4.777 2.372-5.801.187-5.817-6.456-5.817-6.456l6.19-23.108h9.73Z"/><path fill="#292C6A" d="M105.326 26.911c-.71 1.662-2.145 2.696-3.94 2.905-2.004.234-4.135-.32-5.254-2.107-.593-.948-.87-2.135-.94-3.015l-.015-.175c.013-1.055-.136-2.15-.294-3.23-.42-4.233-.967-8.462-1.425-12.686l-.698-6.435h8.402l4.12 19.724.567 2.713c-.014.73-.174 1.488-.523 2.306ZM93.261 24.93c-.278 1.365-.835 2.66-1.899 3.601-1.686 1.49-4.643 1.888-6.495.488-1.347-1.018-2.107-2.838-2.218-4.492l-.011-.74v-.002l-.105-6.502-.006-.369c-.08-4.913-.086-9.834-.232-14.746h8.594l1.569 14.462.351 3.237c.173 1.594.329 3.191.5 4.785.003.191.018-.048-.048.278Zm-12.562.192c-.045.216-.091.43-.149.643a6.729 6.729 0 0 1-.644 1.592 4.822 4.822 0 0 1-3.273 2.382c-3.088.645-5.553-1.056-6.31-4.01-.156-.605-.201-.808-.21-1.226v-.108c.064-1.11 0-2.236 0-3.334V2.167h10.305l.186 11.552.13 8.066v.001l.043 2.679a8.23 8.23 0 0 1-.025.35v.002l-.007.036c-.014.09-.028.18-.046.268v.001Zm-12.464-.469c-.003.06-.011.12-.017.18l-.01.122c0-.01 0-.029-.011.044a8.015 8.015 0 0 1-.478 1.755c-.657 1.587-1.934 2.7-3.64 3.012-2.24.408-4.533-.344-5.67-2.38-.35-.623-.572-1.304-.716-2.002-.092-.444-.1-.399-.116-.858v-7.699c0-4.884.083-9.776.008-14.66h10.656v16.212l.001 4.228c0 .547-.01 1.083.007 1.618-.003.099-.003.198-.007.297l-.007.132v-.001ZM51.3 29.777c-3.036.553-5.234-1.426-6.024-4.206a9.501 9.501 0 0 1-.228-1.013c.144-1.262.135-2.56.205-3.808.095-1.702.19-3.403.287-5.105l.757-13.476h9.409v22.357l-.013.057c-.507 2.394-1.768 4.716-4.393 5.193v.001Zm-8.133-5.215a2.095 2.095 0 0 0-.007.131.508.508 0 0 0-.018.089 8.893 8.893 0 0 1-.444 1.69c-.605 1.593-1.793 2.84-3.482 3.241-2.198.522-4.537-.216-5.724-2.183a7.312 7.312 0 0 1-.841-2.14 8.983 8.983 0 0 1-.127-.67c-.003-.03-.013-.105-.017-.162l2.532-15.384c.385-2.335.77-4.67 1.153-7.006h8.234l-.686 12.195-.173 3.09-.032.562-.064 1.134-.182 3.257c-.03.51-.072 1.002-.084 1.491l-.034.6-.004.065Zm-12.716.77c-.403 1.662-1.265 3.162-2.835 3.958-1.226.62-2.785.774-4.098.343-1.7-.556-2.556-2.203-2.918-3.847-.124-.558-.078-.803-.178-1.338l.044-.162c.304-1.051.567-2.116.85-3.173L24.387 9.65l2.005-7.483h7.914l-1.238 7.52c-.192 1.165-.383 2.33-.578 3.496-.352 2.115-.708 4.23-1.056 6.347-.072.432-.137.868-.2 1.304-.03.177-.06.355-.088.532l-.455 2.76a.911.911 0 0 0-.058.385c-.056.274-.116.548-.182.82v.001Zm77.235-1.068-4.26-20.397-.604-2.883c-.083-.399-.51-.687-.902-.687H25.674a.954.954 0 0 0-.903.687l-5.295 19.763c-.283 1.058-.607 2.113-.85 3.18-.189.82.02 1.741.213 2.544.468 1.932 1.578 3.8 3.433 4.668 2.738 1.283 6.347.473 8.291-1.83.394-.467.707-.966.962-1.488.862 1.72 2.311 3.115 4.227 3.642 2.294.632 4.937.2 6.739-1.395.702-.621 1.25-1.406 1.66-2.259.904 1.788 2.382 3.255 4.414 3.73 3.308.773 6.45-.788 7.98-3.694.812 1.64 2.18 2.976 3.978 3.545 2.274.718 5.038.376 6.912-1.146.746-.606 1.327-1.386 1.758-2.244.908 1.77 2.438 3.16 4.5 3.57 3.316.657 6.492-.719 8.014-3.646 1.256 2.452 3.674 4.11 6.751 3.752a7.843 7.843 0 0 0 5.716-3.668c.232.474.51.926.846 1.342 1.475 1.825 3.843 2.524 6.128 2.357 3.822-.279 6.557-3.37 6.575-7.18 0-.097-.015-.183-.036-.264"/></g></svg>
